src/assets/html.svg

<svg width="61" height="61" viewBox="0 0 61 61" fill="none" xmlns="http://www.w3.org/2000/svg">
<path d="M11.75 53L8 6.125H53L49.25 53L30.5 58.625L11.75 53Z" fill="#E44D26"/>
<path d="M49.25 9.875H30.5V55.8125L45.5 51.125L49.25 9.875Z" fill="#F16529"/>
<path d="M18.3125 33.3125L16.4375 15.5H45.5L44.5625 21.125H22.0625L23 27.6875H43.625L41.75 45.5L30.5 49.25L19.25 45.5L18.3125 36.125H23.9375L24.875 40.8125L30.5 42.6875L36.125 40.8125L37.0625 33.3125H18.3125Z" fill="white"/>
</svg>

<svg width="61" height="61" fill="none" xmlns="http://www.w3.org/2000/svg"><path d="M11.75 53 8 6.125h45L49.25 53 30.5 58.625 11.75 53Z" fill="#E44D26"/><path d="M49.25 9.875H30.5v45.938l15-4.688 3.75-41.25Z" fill="#F16529"/><path d="M18.313 33.313 16.438 15.5H45.5l-.938 5.625h-22.5L23 27.688h20.625L41.75 45.5 30.5 49.25 19.25 45.5l-.938-9.375h5.625l.938 4.688 5.625 1.874 5.625-1.874.938-7.5h-18.75Z" fill="#fff"/></svg>
